svgs/sharp-solid/bridge.svg

<svg xmlns="http://www.w3.org/2000/svg" viewBox="0 0 576 512"><!--! Font Awesome Pro 6.6.0 by @fontawesome - https://fontawesome.com License - https://fontawesome.com/license (Commercial License) Copyright 2024 Fonticons, Inc. --><path d="M32 32L0 32 0 96l32 0 40 0 0 64L0 160 0 288c53 0 96 43 96 96l0 96 96 0 0-96c0-53 43-96 96-96s96 43 96 96l0 96 96 0 0-96c0-53 43-96 96-96l0-128-72 0 0-64 40 0 32 0 0-64-32 0L32 32zM456 96l0 64-80 0 0-64 80 0zM328 96l0 64-80 0 0-64 80 0zM200 96l0 64-80 0 0-64 80 0z"/></svg>

<svg xmlns="http://www.w3.org/2000/svg" viewBox="0 0 576 512"><!--! Font Awesome Pro 6.4.2 by @fontawesome - https://fontawesome.com License - https://fontawesome.com/license (Commercial License) Copyright 2023 Fonticons, Inc. --><path d="M32 32H0V96H32 72v64H0V288c53 0 96 43 96 96v96h96V384c0-53 43-96 96-96s96 43 96 96v96h96V384c0-53 43-96 96-96V160H504V96h40 32V32H544 32zM456 96v64H376V96h80zM328 96v64H248V96h80zM200 96v64H120V96h80z"/></svg>
